src/distro-icons/kali.svg

<svg width="512" height="512" fill="none" xmlns="http://www.w3.org/2000/svg">
<circle cx="256" cy="256" r="256" fill="#fff"/>
<path d="M269.443 151.449s-34.003-2.264-91.901 15.855c-59.004 18.462-92.467 44.631-92.467 44.631s87.943-49.102 187.206-51.892l-2.838-8.594Zm126.819 53.388 4.422-.291s-25.326-30.726-73.801-45.693c27.25 11.077 50.966 25.753 69.375 45.981l.004.003Zm7.234 12.767c.68-1.179 2.872 3.742 4.535 5.809.076.416.189.665-.775.465-.083-.423-.223-.544-.223-.544s-2.332-1.391-3.046-2.374c-.718-.982-.843-2.706-.491-3.356Zm59.488 146.264s5.375-61.725-91.598-75.955a315.264 315.264 0 0 0-43.558-3.231c-77.721 1.028-80.555-89.641-21.989-94.222 24.272-2.003 53.252 11.093 81.59 24.287-.105 3.519.038 6.648 2.351 9.536 2.313 2.891 11.187 6.043 14.026 7.672 2.834 1.625 11.924 7.404 17.495 14.653 1.209-2.26 11.293-8.825 11.293-8.825s-2.419.053-8.035-2.049c-5.624-2.101-12.295-8.458-12.454-8.825-.155-.366-.26-.945 1.055-1.209.994-.839-1.262-3.572-2.26-4.566-.998-1.001-7.673-12.343-7.827-12.608-.159-.264-.212-.525-.681-.839-1.474-.476-7.937.68-7.937.68s-9.939-4.879-13.364-15.401c.053 1.841-1.7 3.855 0 8.088-5.177-2.192-9.63-5.93-13.141-15.167-2.09 5.254 0 8.595 0 8.595s-12.2-3.409-14.154-14.664c-2.139 5.053 0 8.091 0 8.091s-19.887-10.378-52.938-10.529c-22.129-2.03-26.736-40.954-24.688-47.508 0 0-31.913-16.818-94.742-24.252-62.826-7.43-114.351-1.119-114.351-1.119s111.274-5.34 200.416 30.749c3.031 13.553 12.147 36.128 17.056 46.979-14.051 9.713-29.895 18.848-32.359 51.245-2.468 32.39 25.386 60.887 59.923 61.767 32.794 1.747 55.456 1.996 82.921 16.233 26.214 14.494 47.711 58.664 49.839 98.39 2.298-29.476-8.764-92.857-60.376-112.098 72.138 12.623 78.483 66.102 78.483 66.102h.004ZM267.739 146.604l-2.597-8.372s-42.828-7.604-100.416-3.514C107.139 138.814 49 158.97 49 158.97s118.965-29.933 218.735-12.366" fill="#000"/>
</svg>

<svg width="512" height="512" viewBox="0 0 512 512" fill="none" xmlns="http://www.w3.org/2000/svg">
<circle cx="256" cy="256" r="256" fill="white"/>
<path d="M269.443 151.449C269.443 151.449 235.44 149.185 177.542 167.304C118.538 185.766 85.0747 211.935 85.0747 211.935C85.0747 211.935 173.018 162.833 272.281 160.043L269.443 151.449ZM396.262 204.837L400.684 204.546C400.684 204.546 375.358 173.82 326.883 158.853C354.133 169.93 377.849 184.606 396.258 204.834L396.262 204.837ZM403.496 217.604C404.176 216.425 406.368 221.346 408.031 223.413C408.107 223.829 408.22 224.078 407.256 223.878C407.173 223.455 407.033 223.334 407.033 223.334C407.033 223.334 404.701 221.943 403.987 220.96C403.269 219.978 403.144 218.254 403.496 217.604V217.604ZM462.984 363.868C462.984 363.868 468.359 302.143 371.386 287.913C356.959 285.83 342.404 284.751 327.828 284.682C250.107 285.71 247.273 195.041 305.839 190.46C330.111 188.457 359.091 201.553 387.429 214.747C387.324 218.266 387.467 221.395 389.78 224.283C392.093 227.174 400.967 230.326 403.806 231.955C406.64 233.58 415.73 239.359 421.301 246.608C422.51 244.348 432.594 237.783 432.594 237.783C432.594 237.783 430.175 237.836 424.559 235.734C418.935 233.633 412.264 227.276 412.105 226.909C411.95 226.543 411.845 225.964 413.16 225.7C414.154 224.861 411.898 222.128 410.9 221.134C409.902 220.133 403.227 208.791 403.073 208.526C402.914 208.262 402.861 208.001 402.392 207.687C400.918 207.211 394.455 208.367 394.455 208.367C394.455 208.367 384.516 203.488 381.091 192.966C381.144 194.807 379.391 196.821 381.091 201.054C375.914 198.862 371.461 195.124 367.95 185.887C365.86 191.141 367.95 194.482 367.95 194.482C367.95 194.482 355.75 191.073 353.796 179.818C351.657 184.871 353.796 187.909 353.796 187.909C353.796 187.909 333.909 177.531 300.858 177.38C278.729 175.35 274.122 136.426 276.17 129.872C276.17 129.872 244.257 113.054 181.428 105.62C118.602 98.1893 67.077 104.501 67.077 104.501C67.077 104.501 178.351 99.1606 267.493 135.25C270.524 148.803 279.64 171.378 284.549 182.229C270.498 191.942 254.654 201.077 252.19 233.474C249.722 265.864 277.576 294.361 312.113 295.241C344.907 296.988 367.569 297.237 395.034 311.474C421.248 325.968 442.745 370.138 444.873 409.864C447.171 380.388 436.109 317.007 384.497 297.766C456.635 310.389 462.98 363.868 462.98 363.868H462.984ZM267.739 146.604L265.142 138.232C265.142 138.232 222.314 130.628 164.726 134.718C107.139 138.814 49 158.97 49 158.97C49 158.97 167.965 129.037 267.735 146.604" fill="black"/>
</svg>
